lib/preview/nrk-logo-preview-nrk-p3-urort.svg

<svg width="103" height="14" viewBox="0 0 103 14" fill="none" xmlns="http://www.w3.org/2000/svg">
<path d="M70.9028 8.24882C70.91 8.75296 70.8503 9.25584 70.7253 9.74429C70.6256 10.1414 70.4379 10.511 70.1761 10.8258C69.9138 11.1228 69.5791 11.3469 69.2045 11.4763C68.7394 11.6331 68.2504 11.7074 67.7597 11.696C67.188 11.709 66.6193 11.6085 66.0866 11.4003C65.6185 11.2079 65.2349 10.8542 65.0051 10.4033C64.7306 9.80858 64.6031 9.1566 64.6333 8.50229V0.999878H62.8591V8.79068C62.84 9.49155 62.9697 10.1885 63.2395 10.8356C63.4698 11.3693 63.83 11.8369 64.2872 12.1959C64.7474 12.5471 65.273 12.8027 65.8334 12.9479C66.4399 13.108 67.0649 13.1875 67.6921 13.1841C68.6345 13.2209 69.5707 13.0174 70.4127 12.5927C71.1007 12.221 71.6536 11.6414 71.9927 10.9367C72.3518 10.1529 72.5279 9.29773 72.5078 8.43582V1.00072H70.9025L70.9028 8.24882Z" fill="white"/>
<path d="M78.5575 4.32032C78.2414 4.40485 77.9396 4.53583 77.6619 4.70898C77.3736 4.88881 77.1071 5.10145 76.8677 5.34265C76.8277 5.38236 76.7889 5.42714 76.7495 5.46882V4.21021L75.0259 4.46368V12.9971H76.7495V6.61338C76.8775 6.52381 77.0101 6.44081 77.1466 6.3647C77.3157 6.27173 77.4906 6.18988 77.6704 6.11968C77.8448 6.05208 78.0222 5.99294 78.2027 5.94225C78.3881 5.89062 78.5774 5.8539 78.7688 5.83241C78.9735 5.80994 79.1798 5.80429 79.3855 5.81551L79.5883 4.22739C79.242 4.20235 78.8938 4.23374 78.5575 4.32032Z" fill="white"/>
<path d="M88.409 3.99054L87.4628 4.9892C87.3384 4.89653 87.2086 4.81133 87.0741 4.73404C86.3678 4.35799 85.5759 4.17176 84.776 4.19359C83.9717 4.17533 83.1766 4.36745 82.4694 4.75094C81.8166 5.11632 81.2828 5.66188 80.9317 6.32245C80.55 7.06358 80.3612 7.88889 80.3825 8.72224C80.3609 9.54984 80.5406 10.3703 80.9064 11.113C81.0033 11.297 81.1147 11.4729 81.2395 11.6391L80.298 12.6426L81.0753 13.352L81.9766 12.3781C82.1065 12.4752 82.2427 12.5635 82.3844 12.6426C83.0741 13.0045 83.8446 13.1847 84.6233 13.1661C85.4329 13.1831 86.2332 12.9911 86.9468 12.6085C87.6137 12.2401 88.1618 11.6892 88.5268 11.0204C88.9245 10.2721 89.1224 9.4339 89.1013 8.58678C89.1207 7.77998 88.9377 6.98117 88.569 6.26331C88.4688 6.07942 88.354 5.90379 88.226 5.73807L89.2027 4.70025L88.409 3.99054ZM82.5117 6.91416C82.7011 6.49099 83.0169 6.13683 83.4157 5.90028C83.8364 5.66682 84.3119 5.55014 84.7929 5.56232C85.1753 5.55358 85.5554 5.62555 85.9081 5.77355C86.0981 5.85896 86.2735 5.97377 86.4278 6.11376L82.4964 10.3597C82.2774 9.80687 82.1733 9.21522 82.1906 8.62085C82.1706 8.03525 82.2802 7.45245 82.5117 6.91416ZM86.9727 10.3949C86.7794 10.8318 86.4584 11.2 86.0518 11.451C85.644 11.6871 85.1794 11.807 84.7084 11.7977C84.2414 11.8086 83.7811 11.6854 83.3819 11.4428C83.2695 11.3704 83.1643 11.2873 83.0679 11.1947L87.0012 6.94796C87.0597 7.08258 87.1095 7.22088 87.1501 7.36196C87.2614 7.77209 87.3155 8.19564 87.3107 8.62058C87.3307 9.23009 87.2153 9.83646 86.9727 10.396V10.3949Z" fill="white"/>
<path d="M94.7962 4.32032C94.4801 4.4049 94.1783 4.53588 93.9006 4.70898C93.6123 4.88888 93.3458 5.10152 93.1064 5.34265C93.0664 5.38236 93.0275 5.42714 92.9881 5.46882V4.21021L91.2645 4.46368V12.9971H92.9881V6.61338C93.1162 6.52381 93.2487 6.44081 93.3852 6.3647C93.5543 6.27173 93.7293 6.18989 93.909 6.11968C94.0837 6.05208 94.2611 5.99294 94.4413 5.94225C94.6268 5.89068 94.8161 5.85395 95.0074 5.83241C95.2122 5.80994 95.4185 5.80429 95.6242 5.81551L95.827 4.22739C95.4806 4.20237 95.1325 4.23375 94.7962 4.32032Z" fill="white"/>
<path d="M102.13 11.5864C102.051 11.6031 101.964 11.6202 101.868 11.6369L101.581 11.6876C101.489 11.704 101.395 11.7153 101.302 11.7213C101.212 11.7273 101.127 11.7298 101.048 11.7298C100.789 11.737 100.532 11.685 100.296 11.5777C100.094 11.4816 99.9254 11.3252 99.8149 11.1299C99.6965 10.9096 99.6382 10.662 99.6459 10.412V5.73102H102.029L102.215 4.37918H99.6459V1.70903L97.9223 2.31735V4.37918H96.6212L96.4353 5.73102H97.9223V10.7666C97.9147 11.1025 97.9662 11.4371 98.0744 11.7551C98.1614 12.0068 98.2964 12.2392 98.4718 12.4395C98.6325 12.618 98.828 12.7618 99.0463 12.862C99.2697 12.9646 99.5053 13.0384 99.7473 13.0816C99.987 13.1258 100.23 13.1484 100.474 13.1492C100.654 13.1492 100.831 13.1436 101.006 13.1326C101.182 13.1216 101.341 13.1044 101.488 13.0816C101.635 13.0588 101.772 13.0335 101.902 13.0059C102.031 12.9783 102.141 12.9524 102.231 12.9295L102.333 11.5273C102.267 11.5524 102.199 11.5722 102.13 11.5864Z" fill="white"/>
<path d="M46.3332 0.999756H42.632C42.632 0.999756 44.7352 4.45231 44.7589 4.49577C44.8381 4.59561 44.8824 4.71873 44.8849 4.84618C44.8874 4.97363 44.848 5.09837 44.7727 5.20124L42.632 8.71024H46.3338C46.3338 8.71024 48.1189 5.7913 48.3629 5.38608C48.4788 5.23084 48.5405 5.04192 48.5387 4.84825C48.5369 4.65458 48.4717 4.46683 48.3531 4.31375C48.0898 3.86536 48.0892 3.86565 46.3332 0.999756Z" fill="white"/>
<path d="M42.1537 0.999797H38.8572V12.9931H42.1537V0.999797Z" fill="white"/>
<path d="M57.9266 2.98664C57.8021 2.77444 56.7005 0.999756 56.7005 0.999756H48.7778L50.5084 3.90262H54.6814L52.9601 6.72449L54.879 9.94848L53.027 12.9922H56.4093C56.953 12.1027 57.766 10.7268 57.9359 10.4449C58.0524 10.2891 58.1145 10.0993 58.1127 9.90477C58.1109 9.71023 58.0454 9.52166 57.926 9.36802C57.7567 9.07906 56.8509 7.64245 56.3096 6.75808C56.3096 6.75808 57.766 4.3448 57.9359 4.0629C58.0523 3.9072 58.1145 3.71761 58.1128 3.5232C58.1111 3.32879 58.0457 3.1403 57.9266 2.98664Z" fill="white"/>
<path d="M50.3058 7.1142C49.7843 7.96584 48.9124 9.39315 48.749 9.67138C48.634 9.81937 48.5708 10.001 48.5691 10.1884C48.5673 10.3758 48.6272 10.5586 48.7394 10.7087C48.9031 10.9802 49.7818 12.4188 50.3058 13.2766C50.8296 12.4196 51.7086 10.981 51.872 10.7087C51.9842 10.5586 52.044 10.3758 52.0423 10.1885C52.0406 10.0011 51.9775 9.81944 51.8627 9.67138C51.6993 9.39315 50.827 7.96584 50.3058 7.1142Z" fill="white"/>
<path d="M6.10352e-05 12.9949V0.995963H3.93725V12.9949H6.10352e-05ZM9.29387 2.90565L11.5581 12.9949H7.24923L4.54555 0.995963H6.96224C7.51641 0.988771 8.05412 1.18412 8.47456 1.54526C8.89568 1.89125 9.18501 2.37157 9.29387 2.90565ZM12.1496 12.9949V0.995963H16.0868V12.9949H12.1496ZM19.0605 5.55897C18.6363 5.56311 18.2188 5.4521 17.8526 5.23784C17.4913 5.02899 17.1912 4.72883 16.9823 4.36747C16.7678 4.0012 16.6568 3.58363 16.661 3.15919C16.6562 2.73733 16.7673 2.32225 16.9823 1.9593C17.1934 1.60186 17.4932 1.30497 17.8526 1.09739C18.2189 0.883375 18.6363 0.772388 19.0605 0.776257C19.4823 0.771715 19.8972 0.882802 20.2603 1.09739C20.6161 1.30679 20.9127 1.60343 21.1221 1.9593C21.3369 2.32235 21.448 2.73737 21.4434 3.15919C21.4473 3.5836 21.3363 4.0011 21.1221 4.36747C20.9149 4.72725 20.618 5.02715 20.2603 5.23784C19.8972 5.45285 19.4819 5.56396 19.06 5.55897H19.0605ZM22.0517 12.9949V0.995963H25.9892V12.9949H22.0517ZM30.9738 7.55311C30.9849 7.56475 31.0693 7.70276 31.2272 7.96714C31.3851 8.23153 31.5907 8.56956 31.844 8.98116C32.0975 9.39258 32.3649 9.82913 32.6464 10.2909C32.9278 10.7526 33.1927 11.1892 33.4409 11.6007C33.6882 12.0121 33.9698 12.4768 34.2858 12.9949H29.9599C29.6893 12.5555 29.4442 12.1583 29.2245 11.8034C29.0049 11.4485 28.7714 11.0655 28.5239 10.6542C28.2759 10.2434 28.0307 9.84341 27.7883 9.45434C27.5459 9.06527 27.3376 8.72449 27.1633 8.43193C26.9883 8.13919 26.8671 7.942 26.7997 7.84041C26.6326 7.58832 26.5337 7.29717 26.5127 6.99542C26.5295 6.70581 26.6227 6.42585 26.7828 6.18398C26.8504 6.07132 26.9743 5.8713 27.1546 5.584C27.3348 5.29671 27.5461 4.95593 27.7883 4.5616C28.0305 4.16727 28.2757 3.76448 28.5239 3.35325C28.7721 2.94202 29.0056 2.55611 29.2245 2.19558C29.4446 1.83542 29.6897 1.43546 29.9599 0.995688H34.2858L30.9397 6.45437C30.8361 6.61644 30.7778 6.80322 30.7707 6.99542C30.7818 7.1972 30.8523 7.39119 30.9732 7.55311H30.9738Z" fill="white"/>
</svg>

<svg xmlns="http://www.w3.org/2000/svg" viewBox="0 0 103 14"><path fill="#fff" d="M70.903 8.249a5.704 5.704 0 0 1-.178 1.495c-.1.397-.287.767-.549 1.082a2.297 2.297 0 0 1-.972.65 4.216 4.216 0 0 1-1.444.22 4.326 4.326 0 0 1-1.673-.296 2.117 2.117 0 0 1-1.082-.997 4.087 4.087 0 0 1-.372-1.9V1H62.86v7.79c-.019.702.11 1.399.38 2.046.23.533.591 1 1.048 1.36.46.351.986.607 1.546.752.607.16 1.232.24 1.86.236a5.56 5.56 0 0 0 2.72-.591 3.711 3.711 0 0 0 1.58-1.656c.359-.784.535-1.64.515-2.501V1h-1.605v7.248ZM78.558 4.32a3.308 3.308 0 0 0-.896.389 4.4 4.4 0 0 0-.794.634c-.04.04-.08.084-.118.126V4.21l-1.724.254v8.533h1.724V6.613a4.435 4.435 0 0 1 .92-.494c.175-.067.352-.126.533-.177a3.613 3.613 0 0 1 1.182-.126l.203-1.589a3.207 3.207 0 0 0-1.03.093ZM88.409 3.99l-.946 1a3.92 3.92 0 0 0-.389-.256 4.622 4.622 0 0 0-2.298-.54 4.619 4.619 0 0 0-2.307.557 3.897 3.897 0 0 0-1.537 1.571 4.964 4.964 0 0 0-.55 2.4 5.11 5.11 0 0 0 .524 2.391c.097.184.209.36.334.526l-.942 1.004.777.709.902-.974c.13.097.266.185.407.265.69.361 1.46.542 2.24.523.809.017 1.61-.175 2.323-.558a4.008 4.008 0 0 0 1.58-1.588 4.924 4.924 0 0 0 .574-2.433 4.831 4.831 0 0 0-.532-2.324c-.1-.184-.215-.36-.343-.525l.977-1.038-.794-.71Zm-5.897 2.924c.19-.423.505-.777.904-1.014.42-.233.896-.35 1.377-.338.382-.008.762.064 1.115.212.19.085.365.2.52.34l-3.932 4.246a4.376 4.376 0 0 1-.305-1.74c-.02-.585.09-1.168.32-1.706Zm4.46 3.48a2.366 2.366 0 0 1-.92 1.057 2.58 2.58 0 0 1-1.344.347 2.444 2.444 0 0 1-1.326-.355 2.076 2.076 0 0 1-.314-.248L87 6.948c.059.135.108.273.15.414.11.41.165.834.16 1.259.02.61-.096 1.215-.338 1.775v-.001ZM94.796 4.32a3.31 3.31 0 0 0-.895.389c-.289.18-.555.393-.795.634-.04.04-.078.084-.118.126V4.21l-1.724.254v8.533h1.724V6.613a4.444 4.444 0 0 1 .92-.494c.176-.067.353-.126.533-.177a3.63 3.63 0 0 1 1.183-.126l.203-1.589a3.208 3.208 0 0 0-1.03.093ZM102.13 11.586a7.36 7.36 0 0 1-.262.05l-.287.052a2.522 2.522 0 0 1-.279.033c-.09.006-.175.009-.254.009a1.702 1.702 0 0 1-.752-.152 1.092 1.092 0 0 1-.481-.448 1.424 1.424 0 0 1-.17-.718V5.731h2.384l.186-1.352h-2.57V1.71l-1.723.608V4.38h-1.3l-.187 1.352h1.487v5.036c-.007.335.044.67.152.988.087.252.222.484.398.684.16.179.356.323.574.423.224.103.46.176.701.22.24.044.483.066.727.067.18 0 .357-.005.532-.016a5.29 5.29 0 0 0 .482-.051 7.585 7.585 0 0 0 .743-.152l.102-1.403a1.32 1.32 0 0 1-.203.06ZM46.333 1h-3.701s2.103 3.452 2.127 3.496a.582.582 0 0 1 .014.705l-2.141 3.51h3.702s1.785-2.92 2.029-3.325a.885.885 0 0 0-.01-1.072c-.263-.449-.264-.448-2.02-3.314ZM42.154 1h-3.297v11.993h3.297V1ZM57.927 2.987C57.802 2.774 56.7 1 56.7 1h-7.922l1.73 2.903h4.173l-1.72 2.821 1.918 3.224-1.852 3.044h3.382c.544-.89 1.357-2.265 1.527-2.547a.888.888 0 0 0-.01-1.077c-.17-.289-1.075-1.726-1.616-2.61l1.626-2.695a.888.888 0 0 0-.01-1.076Z"/><path fill="#fff" d="M50.306 7.114a377.05 377.05 0 0 0-1.557 2.557.855.855 0 0 0-.01 1.038c.164.271 1.043 1.71 1.567 2.568a906.39 906.39 0 0 0 1.566-2.568.856.856 0 0 0-.01-1.038 391.068 391.068 0 0 0-1.556-2.557ZM0 12.995V.996h3.937v11.999H0Zm9.294-10.09 2.264 10.09H7.25L4.546.996h2.416a2.276 2.276 0 0 1 1.513.55c.42.345.71.826.819 1.36Zm2.856 10.09V.996h3.937v11.999H12.15Zm6.91-7.436a2.383 2.383 0 0 1-2.4-2.4 2.303 2.303 0 0 1 .322-1.2 2.412 2.412 0 0 1 3.278-.862c.356.21.653.506.862.862.215.363.326.778.321 1.2a2.4 2.4 0 0 1-1.183 2.079 2.303 2.303 0 0 1-1.2.321Zm2.992 7.436V.996h3.937v11.999h-3.937Zm8.922-5.442a9.3 9.3 0 0 1 .253.414c.158.265.364.603.617 1.014a323.751 323.751 0 0 1 1.597 2.62c.247.411.529.876.845 1.394H29.96c-.27-.44-.516-.837-.736-1.192-.22-.355-.453-.738-.7-1.149-.248-.41-.493-.81-.736-1.2-.242-.389-.45-.73-.625-1.022-.175-.293-.296-.49-.363-.592a1.75 1.75 0 0 1-.287-.845c.016-.29.11-.57.27-.811.067-.113.191-.313.372-.6a182.106 182.106 0 0 0 1.37-2.23c.247-.412.48-.798.7-1.158l.735-1.2h4.326L30.94 6.454a1.078 1.078 0 0 0-.17.541c.012.202.082.396.203.558Z"/></svg>
